!!!!SEGMENT: pl-kk--kk-i-389--004-004_anonim--missa-no-4-graduale-alleluia-ave-maria.krn
!!!cenid: 17xx:2479
!!!COM: Anonim
!!!COM-rismID: pe30004985
!!!CDT:
!!!CNT:
!!!OPR: [Missa] No. 4.
!!!OTL: Graduale/Alleluia. Ave Maria
!!!OMV: 004
!!!PDT:
!!!AGN: Sacred; Mass
!!!YEC: Copyright 2022 Narodowy Instytut Fryderyka Chopina (https://polishscores.org)
!!!YEM: License CC-BY-4.0 (https://creativecommons.org/licenses/by/4.0)
!!!SMS-siglum: PL-Kk
!!!SMS-shelfmark: Kk.I.389
!!!SMS-variant:
!!!SMS-altvar:
!!!SMS-shelfwork: 004-004 M
!!!NIFC-rismSourceID: 1001146182
!!!NIFC-rismChildID: 1001146623
!!!NIFC-islandoraID: pl-kk:6976
!!!URL-pdf-islandora: https://repozytorium.nifc.pl/islandora/object/pl-kk%3A6976/datastream/PDF/view
!!!URL-scan: https://polish.musicsources.pl/pl/lokalizacje/galeria/rekopisy/5999/1 @EN{Scan on Polish Music Sources Website} @PL{Skany w portalu Dziedzictwo Muzyki Polskiej w otwartym dostępie}
!!!IIIF:
!!!ONB-nifc: UWAGA: S – skan 8-9, A – 27-28 , T –46-47 , B – 65-66 . Części Mszy: Rorate, Kyrie, Gloria, Graduale, Sanctus, Benedictus, Agnus, Dona
!!!AIN: 1 alto 1 bass 1 soprn 1 tenor
!!!key: B-
**kern	**text	**kern	**text	**kern	**text	**kern	**text
*part4	*part4	*part3	*part3	*part2	*part2	*part1	*part1
*staff4	*staff4	*staff3	*staff3	*staff2	*staff2	*staff1	*staff1
*I"Basso.	*	*I"Tenore.	*	*I"Alto.	*	*I"Soprano.	*
*I'[B]	*	*I'[T]	*	*I'[A]	*	*I'[S]	*
*ICvox	*	*ICvox	*	*ICvox	*	*ICvox	*
*Ibass	*	*Itenor	*	*Ialto	*	*Isoprn	*
*clefF4	*	*clefC4	*	*clefC3	*	*clefC1	*
*k[b-e-]	*	*k[b-e-]	*	*k[b-e-]	*	*k[b-e-]	*
*B-:	*	*B-:	*	*B-:	*	*B-:	*
*M2/2	*	*M2/2	*	*M2/2	*	*M2/2	*
*met(C.|)	*	*met(C.|)	*	*met(C.|)	*	*met(C.|)	*
=1	=1	=1	=1	=1	=1	=1	=1
!!LO:TX:t=P:problem:all\right	!	!	!	!	!	!	!	!	!	!	!	!	!	!
4r	.	4r	.	4r	.	4r	.
4B-\	Al-	4B-\	Al-	4f\	Al-	4dd\	Al-
4A\	-le-	4c\	-le-	4f\	-le-	4cc\	-le-
4B-\	-lu-	4B-\	-lu-	4f\	-lu-	4dd\	-lu-
=2	=2	=2	=2	=2	=2	=2	=2
4F\	-ia	4A\	-ia	4f\	-ia	4cc\	-ia,
4F\	Al-	4A\	al-	4f\	Al-	4cc\	al-
4E-X\	-le-	4G/	-le-	4g\	-le-	4cc\	-le-
4F\	-lu-	4A/	-lu-	4f\	-lu-	4cc\	-lu-
=3	=3	=3	=3	=3	=3	=3	=3
4BB-/	-ia	4B-/	-ia	4f\	-ia,	4dd\	-a,
4G\	Al-	4G/	Al-	4d\	al-	4b-\	Al-
4F#X\	-le-	4A/	-le-	4d\	-le-	4a\	-le-
4G\	-lu-	4G/	-lu-	4d\	-lu-	4b-\	-lu-
=4	=4	=4	=4	=4	=4	=4	=4
4D/	-ia	4F#X/	-ia	4d\	-ia	4a\	-ia,
4D/	Al-	4G/	al-	4d\	al-	4a\	Al-
4C/	-le-	4A/	-le-	4e-X\	-le-	4a\	-le-
4D/	-lu-	4F#/	-lu-	4d\	-lu-	4a\	-lu-
=5	=5	=5	=5	=5	=5	=5	=5
*	*	*	*	*	*	*2\right	*
4GG/	-ia	2.G/	-ia,	4d\	-ia	2.b-\	-ia,
4r	.	.	.	4r	.	.	.
2r	.	.	.	2r	.	.	.
.	.	4A/	al-	.	.	4cc\	Al-
!	!	!LO:LB:g=original	!	!	!	!	!
=6	=6	=6	=6	=6	=6	=6	=6
*2\right	*	*2\right	*	*2\right	*	*	*
2.D\	al-	2B-\	-le-	2.f\	Al	2dd\	-le-
.	.	4B-\	-lu-	.	.	4cc\	.
4E-\	.	4B-\	-ia	4f\	.	4b-\	-lu-
!	!	!	!	!LO:LB:g=original	!	!	!
=7	=7	=7	=7	=7	=7	=7	=7
2.F\	.	2.A\	al-	2.a\	al-	2.cc\	-ia
8E-\L	.	8B-\L	.	8g\L	.	4dd\	Al-
8D\J	.	8c\J	.	8f\J	.	.	.
!LO:LB:g=original	!	!	!	!	!	!LO:LB:g=original	!
=8	=8	=8	=8	=8	=8	=8	=8
2C/	.	2A\	.	2en\	.	2ee-\	.
2BB-/	.	2B-\	.	2f\	-le-	2dd\	.
=9	=9	=9	=9	=9	=9	=9	=9
2AA/	.	2c\	.	[1f	-lu-	2cc\	-le-
2BB-/	-le-	2d\	.	.	.	[2b-\	.
=10	=10	=10	=10	=10	=10	=10	=10
!	!	!	!	!LO:N:xstem:cue:vis=4	!	!	!
2F\	-lu-	2.c\	-le-	2f\]	.	2b-\]	.
2FF/	.	.	.	2f\	.	2a\	-lu-
.	.	4c\	-lu-	.	.	.	.
=11	=11	=11	=11	=11	=11	=11	=11
4BB-/	-ia,	4d\	-ia	4f\	-ia	4b-\	-ia,
4B-\	Al-	4B-\	Al-	4f\	Al-	4dd\	Al-
4F\	-le-	4A\	-le-	4f\	-le-	4cc\	-le-
4B-\	-lu-	4B-\	-lu-	4f\	-lu-	4dd\	-lu-
=12	=12	=12	=12	=12	=12	=12	=12
4G\	-ia,	4B-\	-ia	4g\	-ia	4dd\	-ia
4E-\	Al-	4B-\	al-	4g\	Al-	4cc\	Al-
4F\	-le-	4A\	-le-	4f\	-le-	4cc\	-le-
4FF/	-lu-	4A\	-lu-	4f\	-lu-	4cc\	-lu-
=13	=13	=13	=13	=13	=13	=13	=13
!LO:N:vis=0	!	!LO:N:vis=0	!	!LO:N:vis=0	!	!LO:N:vis=0	!
1BB-	-ia,	1B-	-ia	1f	-ia	1dd	-ia.
!	!	!LO:LB:g=original	!	!	!	!	!
=14||	=14||	=14||	=14||	=14||	=14||	=14||	=14||
*	*	*M2/2	*	*	*	*	*
*	*	*met(C.|)	*	*	*	*	*
!LO:TX:a:t=5.	!	!LO:TX:a:t=4.	!	!LO:TX:a:t=1.	!	!	!
00r	.	00r	.	1r	.	2ff\	A-
.	.	.	.	.	.	2a\	-ve
=15	=15	=15	=15	=15	=15	=15	=15
.	.	.	.	2b-\	A-	4r	.
.	.	.	.	.	.	4dd\	a-
.	.	.	.	2d\	-ve	4ff\	-ve
.	.	.	.	.	.	4b-\	Ma-
=16	=16	=16	=16	=16	=16	=16	=16
.	.	.	.	4r	.	2ee-X\	-ri-
.	.	.	.	4g\	Ma-	.	.
.	.	.	.	4b-\	-ri-	4dd\	.
.	.	.	.	4e-X\	-a	4cc\	-a
!	!	!	!	!LO:LB:g=original	!	!	!
=17	=17	=17	=17	=17	=17	=17	=17
.	.	.	.	2b-\	A-	2dd\	gra-
.	.	.	.	4a\	-ve	4cc\	-ti-
.	.	.	.	4g\	Ma-	4b-\	-a
!	!	!	!	!	!	!LO:LB:g=original	!
=18	=18	=18	=18	=18	=18	=18	=18
1r	.	2f\	A-	2.f\	-ri-	4.a\	ple-
.	.	.	.	.	.	8b-\	.
.	.	2A\	-ve	.	.	2cc\	-na,
.	.	.	.	4f\	-a	.	.
=19	=19	=19	=19	=19	=19	=19	=19
2B-\	A-	4B-\	Ma-	2f\	gra-	4cc\	gra-
.	.	4d\	.	.	.	4b-\	-ti-
2D\	-ve	4f\	-ri-	4f\	-ti-	2a\	-a
.	.	4B-\	-a	4f\	-a	.	.
=20	=20	=20	=20	=20	=20	=20	=20
4r	.	2e-\	gra-	2g\	ple-	2.b-\	ple-
4G\	Ma-	.	.	.	.	.	.
4B-\	-ri-	4d\	-ti-	2g\	-na	.	.
4E-X\	-a	4c\	-a	.	.	4cc\	.
=21	=21	=21	=21	=21	=21	=21	=21
2B-\	gra-	2d\	gra-	2f\	gra-	4cc\	.
.	.	.	.	.	.	4b-\	.
4An\	-ti-	4c\	-ti-	4f\	-ti-	4cc\	.
4G\	-a	4G/	-a	4en\	-a	4b-\	.
!LO:LB:g=original	!	!	!	!	!	!	!
=22	=22	=22	=22	=22	=22	=22	=22
4F\	ple-	4A\	ple-	4f\	ple-	2a\	-na
4F\	-na,	4A\	-na	4f\	-na	.	.
4B-\	Do-	2B-\	Do-	2f\	Do-	2dd\	Do-
4A-X\	.	.	.	.	.	.	.
=23	=23	=23	=23	=23	=23	=23	=23
4G\	.	4B-\	-mi-	4g\	.	4ee-\	-mi-
4F\	-mi-	4A\	-nus	4a-X\	-mi-	4dd\	.
2E-\	-nus	2B-\	te-	2g\	-nus	2ee-\	-nus
=24	=24	=24	=24	=24	=24	=24	=24
2A-X\	te-	2c\	.	1f	te-	2ee-\	te-
2B-\	.	2B-\	.	.	.	2dd\	.
!	!	!LO:LB:g=original	!	!	!	!	!
=25	=25	=25	=25	=25	=25	=25	=25
4E-\	-cum,	4B-\	-cum,	4e-X\	-cum	4ee-\	-cum,
4B-\	be-	4r	.	4r	.	4r	.
4B-\	-ne-	2r	.	2r	.	2r	.
4B-\	-dic-	.	.	.	.	.	.
=26	=26	=26	=26	=26	=26	=26	=26
!	!	!	!	!LO:TX:a:t=1.	!	!LO:TX:a:t=2	!
4An\	-ta,	4r	.	1r	.	0r	.
4F\	be-	4f\	be-	.	.	.	.
4G\	-ne-	4f\	-ne-	.	.	.	.
4A\	-dic-	4f\	-dic-	.	.	.	.
!	!	!	!	!LO:LB:g=original	!	!	!
=27	=27	=27	=27	=27	=27	=27	=27
2.B-\	-ta,	4d\	-ta	4r	.	.	.
.	.	4B-\	be-	4b-\	be-	.	.
.	.	4c\	-ne-	4b-\	-ne-	.	.
4BB-/	tu	4d\	-dic-	4b-\	-dic-	.	.
=28	=28	=28	=28	=28	=28	=28	=28
2F\	in	2.c\	-ta,	4a\	-ta	4r	.
.	.	.	.	4f\	be-	4ff\	be-
4F\	mu-	.	.	4g\	-ne-	4ff\	-ne-
4F\	-li-	4c\	tu	4a\	-dic-	4ff\	-dic-
!	!	!	!	!	!	!LO:LB:g=original	!
=29	=29	=29	=29	=29	=29	=29	=29
2BB-/	-e-	2d\	in	2.b-\	-ta,	4dd\	-ta
.	.	.	.	.	.	4b-\	be-
2B-\	.	4d\	mu-	.	.	4cc\	-ne-
.	.	4d\	-li-	4b-\	tu	4dd\	-dic-
!LO:LB:g=original	!	!	!	!	!	!	!
=30	=30	=30	=30	=30	=30	=30	=30
!	!	!LO:N:vis=1.	!	!	!	!	!
2C/	.	[1c	-e-	2g\	in	2ee-X\	-ta,
2BB-/	.	.	.	4g\	mu-	2ee-\	tu
.	.	.	.	4g\	-li-	.	.
=31	=31	=31	=31	=31	=31	=31	=31
!	!	!LO:N:xstem:cue:vis=4	!	!	!	!	!
2AA/	.	2c\]	.	1f	-e-	2ee-\	in
2BB-/	.	2B-\	.	.	.	4dd\	mu-
.	.	.	.	.	.	4dd\	-li-
=32	=32	=32	=32	=32	=32	=32	=32
2.F\	.	2.B-\	.	2.f\	.	2.cc\	-e-
4FF/	-ri-	4A\	-ri-	4f\	-ri-	4cc\	-ri-
=33	=33	=33	=33	=33	=33	=33	=33
4BB-/	-bus,	4B-\	-bus	4f\	-bus,	2dd\	-bus,
4B-\	et	4B-\	et	4f\	et	.	.
!	!	!LO:LB:g=original	!	!	!	!	!
4B-\	be-	4B-\	be-	4f\	be-	2r	.
4A-X\	-ne-	4B-\	-ne-	4f\	-ne-	.	.
=34	=34	=34	=34	=34	=34	=34	=34
4G\	-dic-	2B-\	-dic-	2g\	-dic-	4r	.
8F\L	.	.	.	.	.	4b-\	et
8E-X\J	.	.	.	.	.	.	.
2D\	-tus,	2B-\	-tus	2f\	-tus	4b-\	be-
.	.	.	.	.	.	4a-X\	-ne-
=35	=35	=35	=35	=35	=35	=35	=35
2E-\	fruc-	4r	.	2g\	fruc-	2g\	-dic-
.	.	4e-\	et	.	.	.	.
2G\	-tus	4e-\	be-	2g\	-tus	2b-\	-tus
.	.	4d\	-ne-	.	.	.	.
!	!	!	!	!LO:LB:g=original	!	!	!
=36	=36	=36	=36	=36	=36	=36	=36
1A-X	Ven-	2c\	-dic-	2e-\	ven-	1cc	fru-
.	.	2c\	-tus	[2f\	.	.	.
=37	=37	=37	=37	=37	=37	=37	=37
!LO:N:xstem:cue:vis=4	!	!	!	!	!	!	!
2A-y\	.	4d\	fruc-	2f\]	.	1b-	-ctus
.	.	4d\	-tus	.	.	.	.
2G\	-tris	2e-\	Ven-	2g\	.	.	.
=38	=38	=38	=38	=38	=38	=38	=38
[1F	tu-	2e-\	.	2c\	.	2a\	ven-
.	.	2d\	-tris	4d\	.	[2b-\	-tris
.	.	.	.	4e-\	-tris	.	.
!	!	!	!	!	!	!LO:LB:g=original	!
=39	=39	=39	=39	=39	=39	=39	=39
1F]	.	1c	tu-	1f	tu-	2b-\]	.
.	.	.	.	.	.	2a\	tu-
!LO:LB:g=original	!	!	!	!	!	!	!
=40	=40	=40	=40	=40	=40	=40	=40
2BB-/	-i	2d\	-i,	2f\	-i,	2b-\	-i,
4E-\	be-	4B-\	be-	4e-X\	fru-	4g\	be-
4D\	-ne-	4B-\	-ne	4f\	-ctus	4b-\	-ne-
=41	=41	=41	=41	=41	=41	=41	=41
2E-\	-dic-	2B-\	dic-	2g\	Ven-	2b-\	-dic-
2BB-/	-tus	2B-\	-tus	2f\	-tris	2dd\	-tus
!	!	!LO:LB:g=original	!	!	!	!	!
=42	=42	=42	=42	=42	=42	=42	=42
2F\	fruc-	2A\	fru-	2f\	tu-	2cc\	fruc-
2F\	-tus	2B-\	-ctus	2d\	-i	2dd\	-tus
=43	=43	=43	=43	=43	=43	=43	=43
2F\	Ven-	2A\	Ven-	2c\	Ven-	2cc\	Ven-
2F\	-tris	2B-\	-tris	2d\	-tris	2dd\	-tris
=44	=44	=44	=44	=44	=44	=44	=44
1F	tu-	1B-	tu-	1d	tu-	1dd	tu-
=45	=45	=45	=45	=45	=45	=45	=45
!LO:TX:a:t=Alleluia Da Capo.	!	!LO:TX:a:t=Alleluia Da Capo.	!	!LO:TX:a:t=Alleluia\nDa Capo.	!	!LO:TX:a:t=Alleluia Da Capo.	!
1F	-i.	1A;	-i.	1f;	-i.	1cc	-i.
==	==	==	==	==	==	==	==
*-	*-	*-	*-	*-	*-	*-	*-
!!!system-decoration: [(s1,s2,s3,s4)]
!!!ENC: Anastazja Marusiak
!!!END: 2023-11-07
!!!EED: Jan Barakat
!!!EEV: 2023-11-30
